build/img/icon/advantages-7.svg

<svg xmlns="http://www.w3.org/2000/svg" width="512" height="512" fill="none"><path d="M81.885 198.692c5.522 0 10-4.478 10-10V175.71c0-5.522-4.478-10-10-10s-10 4.478-10 10v12.982c0 5.523 4.477 10 10 10zm64.062 0c5.522 0 10-4.478 10-10V175.71c0-5.522-4.478-10-10-10s-10 4.478-10 10v12.982c0 5.523 4.478 10 10 10zm64.09 0c5.522 0 10-4.478 10-10V175.71c0-5.522-4.478-10-10-10s-10 4.478-10 10v12.982c0 5.523 4.478 10 10 10zm64.09 0c5.522 0 10-4.478 10-10V175.71c0-5.522-4.478-10-10-10s-10 4.478-10 10v12.982c0 5.523 4.477 10 10 10zM81.885 256.32c5.522 0 10-4.478 10-10v-12.954c0-5.522-4.478-10-10-10s-10 4.478-10 10v12.954c0 5.523 4.477 10 10 10zm64.062 0c5.522 0 10-4.478 10-10v-12.954c0-5.522-4.478-10-10-10s-10 4.478-10 10v12.954c0 5.523 4.478 10 10 10zm64.09 0c5.522 0 10-4.478 10-10v-12.954c0-5.522-4.478-10-10-10s-10 4.478-10 10v12.954c0 5.523 4.478 10 10 10zm64.09 0c5.522 0 10-4.478 10-10v-12.954c0-5.522-4.478-10-10-10s-10 4.478-10 10v12.954c0 5.523 4.477 10 10 10z" fill="#2A47B6"/><path d="M502 442.281h-7.121V227.187c0-11.172-9.089-20.262-20.261-20.262H338.892v-69.449c7.986-4.417 13.407-12.927 13.407-22.68v-14.484c0-14.282-11.619-25.902-25.901-25.902h-78.043V62.015C248.354 27.819 220.522 0 186.312 0h-16.639c-34.195 0-62.015 27.819-62.015 62.015v12.394H29.587c-14.282 0-25.902 11.62-25.902 25.902v14.484c0 9.754 5.422 18.263 13.408 22.68v304.806H10c-5.522 0-10 4.478-10 10V502c0 5.522 4.478 10 10 10h182.236c5.522 0 10-4.478 10-10s-4.478-10-10-10H20v-29.719h472V492H282.036c-5.522 0-10 4.478-10 10s4.478 10 10 10H502c5.522 0 10-4.478 10-10v-49.719c0-5.522-4.478-10-10-10zm-27.382-215.356c.117 0 .261.145.261.262v215.095h-36.947v-43.75h4.146c5.522 0 10-4.478 10-10s-4.478-10-10-10h-72.765c-5.522 0-10 4.478-10 10s4.478 10 10 10h4.145v43.75h-34.565V226.925h135.725zm-56.686 171.606v43.75h-24.475v-43.75h24.475zM117.658 140.697h201.233v255.777H230.44V364.97h16.645c5.522 0 10-4.478 10-10s-4.478-10-10-10H101.728c-5.522 0-10 4.478-10 10s4.478 10 10 10h16.645v31.505h-81.28V140.697h80.565zm20.714 224.273h26.034v77.312h-26.034V364.97zm46.034 0h26.034v77.312h-26.034V364.97zm46.034 51.505h88.451v25.807H230.44v-25.807zm95.957-322.067c3.199 0 5.901 2.703 5.901 5.902v14.484c0 3.199-2.702 5.902-5.901 5.902h-78.043V94.408h78.043zM127.658 62.015c0-23.167 18.848-42.015 42.015-42.015h16.639c23.183 0 42.043 18.848 42.043 42.015v58.683H127.658V62.015zM23.685 100.311c0-3.199 2.703-5.902 5.902-5.902h78.071v26.289H29.587c-3.199 0-5.902-2.703-5.902-5.902v-14.485zm13.408 316.164h81.279v25.807H37.093v-25.807z" fill="#2A47B6"/><path d="M154.139 80.349h13.867v13.839c0 5.522 4.478 10 10 10s10-4.478 10-10V80.349h13.839c5.522 0 10-4.478 10-10s-4.478-10-10-10h-13.839V46.51c0-5.522-4.478-10-10-10s-10 4.478-10 10v13.839h-13.867c-5.522 0-10 4.478-10 10s4.477 10 10 10zM81.885 313.976c5.522 0 10-4.478 10-10v-12.982c0-5.522-4.478-10-10-10s-10 4.478-10 10v12.982c0 5.522 4.477 10 10 10zm64.062 0c5.522 0 10-4.478 10-10v-12.982c0-5.522-4.478-10-10-10s-10 4.478-10 10v12.982c0 5.522 4.478 10 10 10zm64.09 0c5.522 0 10-4.478 10-10v-12.982c0-5.522-4.478-10-10-10s-10 4.478-10 10v12.982c0 5.522 4.478 10 10 10zm64.09 0c5.522 0 10-4.478 10-10v-12.982c0-5.522-4.478-10-10-10s-10 4.478-10 10v12.982c0 5.522 4.477 10 10 10zm100.713-21.713c5.522 0 10-4.478 10-10v-12.954c0-5.522-4.478-10-10-10s-10 4.478-10 10v12.954c0 5.522 4.477 10 10 10zm64.091 0c5.522 0 10-4.478 10-10v-12.954c0-5.522-4.478-10-10-10s-10 4.478-10 10v12.954c0 5.522 4.477 10 10 10zm-64.091 57.655c5.522 0 10-4.478 10-10v-12.982c0-5.522-4.478-10-10-10s-10 4.478-10 10v12.982c0 5.522 4.477 10 10 10zm64.091 0c5.522 0 10-4.478 10-10v-12.982c0-5.522-4.478-10-10-10s-10 4.478-10 10v12.982c0 5.522 4.477 10 10 10zM237.136 492c-5.522 0-10 4.478-10 10s4.478 10 10 10h.057c5.522 0 9.972-4.478 9.972-10s-4.507-10-10.029-10z" fill="#2A47B6"/></svg>

<?xml version="1.0" encoding="UTF-8"?> <svg xmlns="http://www.w3.org/2000/svg" width="512" height="512" viewBox="0 0 512 512" fill="none"> <path d="M81.885 198.692C87.407 198.692 91.885 194.214 91.885 188.692V175.71C91.885 170.188 87.407 165.71 81.885 165.71C76.363 165.71 71.885 170.188 71.885 175.71V188.692C71.885 194.215 76.362 198.692 81.885 198.692Z" fill="#2A47B6"></path> <path d="M145.947 198.692C151.469 198.692 155.947 194.214 155.947 188.692V175.71C155.947 170.188 151.469 165.71 145.947 165.71C140.425 165.71 135.947 170.188 135.947 175.71V188.692C135.947 194.215 140.425 198.692 145.947 198.692Z" fill="#2A47B6"></path> <path d="M210.037 198.692C215.559 198.692 220.037 194.214 220.037 188.692V175.71C220.037 170.188 215.559 165.71 210.037 165.71C204.515 165.71 200.037 170.188 200.037 175.71V188.692C200.037 194.215 204.515 198.692 210.037 198.692Z" fill="#2A47B6"></path> <path d="M274.127 198.692C279.649 198.692 284.127 194.214 284.127 188.692V175.71C284.127 170.188 279.649 165.71 274.127 165.71C268.605 165.71 264.127 170.188 264.127 175.71V188.692C264.127 194.215 268.604 198.692 274.127 198.692Z" fill="#2A47B6"></path> <path d="M81.885 256.32C87.407 256.32 91.885 251.842 91.885 246.32V233.366C91.885 227.844 87.407 223.366 81.885 223.366C76.363 223.366 71.885 227.844 71.885 233.366V246.32C71.885 251.843 76.362 256.32 81.885 256.32Z" fill="#2A47B6"></path> <path d="M145.947 256.32C151.469 256.32 155.947 251.842 155.947 246.32V233.366C155.947 227.844 151.469 223.366 145.947 223.366C140.425 223.366 135.947 227.844 135.947 233.366V246.32C135.947 251.843 140.425 256.32 145.947 256.32Z" fill="#2A47B6"></path> <path d="M210.037 256.32C215.559 256.32 220.037 251.842 220.037 246.32V233.366C220.037 227.844 215.559 223.366 210.037 223.366C204.515 223.366 200.037 227.844 200.037 233.366V246.32C200.037 251.843 204.515 256.32 210.037 256.32Z" fill="#2A47B6"></path> <path d="M274.127 256.32C279.649 256.32 284.127 251.842 284.127 246.32V233.366C284.127 227.844 279.649 223.366 274.127 223.366C268.605 223.366 264.127 227.844 264.127 233.366V246.32C264.127 251.843 268.604 256.32 274.127 256.32Z" fill="#2A47B6"></path> <path d="M502 442.281H494.879V227.187C494.879 216.015 485.79 206.925 474.618 206.925H338.892V137.476C346.878 133.059 352.299 124.549 352.299 114.796V100.312C352.299 86.03 340.68 74.41 326.398 74.41H248.355V62.015C248.354 27.819 220.522 0 186.312 0H169.673C135.478 0 107.658 27.819 107.658 62.015V74.409H29.587C15.305 74.409 3.685 86.029 3.685 100.311V114.795C3.685 124.549 9.107 133.058 17.093 137.475V442.281H10C4.478 442.281 0 446.759 0 452.281V502C0 507.522 4.478 512 10 512H192.236C197.758 512 202.236 507.522 202.236 502C202.236 496.478 197.758 492 192.236 492H20V462.281H492V492H282.036C276.514 492 272.036 496.478 272.036 502C272.036 507.522 276.514 512 282.036 512H502C507.522 512 512 507.522 512 502V452.281C512 446.759 507.522 442.281 502 442.281V442.281ZM474.618 226.925C474.735 226.925 474.879 227.07 474.879 227.187V442.282H437.932V398.532H442.078C447.6 398.532 452.078 394.054 452.078 388.532C452.078 383.01 447.6 378.532 442.078 378.532H369.313C363.791 378.532 359.313 383.01 359.313 388.532C359.313 394.054 363.791 398.532 369.313 398.532H373.458V442.282H338.893V226.925H474.618ZM417.932 398.531V442.281H393.457V398.531H417.932ZM117.658 140.697H238.354H318.891V396.474H230.44V364.97H247.085C252.607 364.97 257.085 360.492 257.085 354.97C257.085 349.448 252.607 344.97 247.085 344.97H101.728C96.206 344.97 91.728 349.448 91.728 354.97C91.728 360.492 96.206 364.97 101.728 364.97H118.373V396.475H37.093V140.697H117.658ZM138.372 364.97H164.406V442.282H138.372V364.97ZM184.406 364.97H210.44V442.282H184.406V364.97ZM230.44 416.475H318.891V442.282H230.44V416.475ZM326.397 94.408C329.596 94.408 332.298 97.111 332.298 100.31V114.794C332.298 117.993 329.596 120.696 326.397 120.696H248.354V94.408H326.397ZM127.658 62.015C127.658 38.848 146.506 20 169.673 20H186.312C209.495 20 228.355 38.848 228.355 62.015V120.698H127.658V62.015ZM23.685 100.311C23.685 97.112 26.388 94.409 29.587 94.409H107.658V120.698H29.587C26.388 120.698 23.685 117.995 23.685 114.796V100.311ZM37.093 416.475H118.372V442.282H37.093V416.475Z" fill="#2A47B6"></path> <path d="M154.139 80.349H168.006V94.188C168.006 99.71 172.484 104.188 178.006 104.188C183.528 104.188 188.006 99.71 188.006 94.188V80.349H201.845C207.367 80.349 211.845 75.871 211.845 70.349C211.845 64.827 207.367 60.349 201.845 60.349H188.006V46.51C188.006 40.988 183.528 36.51 178.006 36.51C172.484 36.51 168.006 40.988 168.006 46.51V60.349H154.139C148.617 60.349 144.139 64.827 144.139 70.349C144.139 75.871 148.616 80.349 154.139 80.349Z" fill="#2A47B6"></path> <path d="M81.885 313.976C87.407 313.976 91.885 309.498 91.885 303.976V290.994C91.885 285.472 87.407 280.994 81.885 280.994C76.363 280.994 71.885 285.472 71.885 290.994V303.976C71.885 309.498 76.362 313.976 81.885 313.976Z" fill="#2A47B6"></path> <path d="M145.947 313.976C151.469 313.976 155.947 309.498 155.947 303.976V290.994C155.947 285.472 151.469 280.994 145.947 280.994C140.425 280.994 135.947 285.472 135.947 290.994V303.976C135.947 309.498 140.425 313.976 145.947 313.976Z" fill="#2A47B6"></path> <path d="M210.037 313.976C215.559 313.976 220.037 309.498 220.037 303.976V290.994C220.037 285.472 215.559 280.994 210.037 280.994C204.515 280.994 200.037 285.472 200.037 290.994V303.976C200.037 309.498 204.515 313.976 210.037 313.976Z" fill="#2A47B6"></path> <path d="M274.127 313.976C279.649 313.976 284.127 309.498 284.127 303.976V290.994C284.127 285.472 279.649 280.994 274.127 280.994C268.605 280.994 264.127 285.472 264.127 290.994V303.976C264.127 309.498 268.604 313.976 274.127 313.976Z" fill="#2A47B6"></path> <path d="M374.84 292.263C380.362 292.263 384.84 287.785 384.84 282.263V269.309C384.84 263.787 380.362 259.309 374.84 259.309C369.318 259.309 364.84 263.787 364.84 269.309V282.263C364.84 287.785 369.317 292.263 374.84 292.263Z" fill="#2A47B6"></path> <path d="M438.931 292.263C444.453 292.263 448.931 287.785 448.931 282.263V269.309C448.931 263.787 444.453 259.309 438.931 259.309C433.409 259.309 428.931 263.787 428.931 269.309V282.263C428.931 287.785 433.408 292.263 438.931 292.263Z" fill="#2A47B6"></path> <path d="M374.84 349.918C380.362 349.918 384.84 345.44 384.84 339.918V326.936C384.84 321.414 380.362 316.936 374.84 316.936C369.318 316.936 364.84 321.414 364.84 326.936V339.918C364.84 345.44 369.317 349.918 374.84 349.918Z" fill="#2A47B6"></path> <path d="M438.931 349.918C444.453 349.918 448.931 345.44 448.931 339.918V326.936C448.931 321.414 444.453 316.936 438.931 316.936C433.409 316.936 428.931 321.414 428.931 326.936V339.918C428.931 345.44 433.408 349.918 438.931 349.918Z" fill="#2A47B6"></path> <path d="M237.136 492C231.614 492 227.136 496.478 227.136 502C227.136 507.522 231.614 512 237.136 512H237.193C242.715 512 247.165 507.522 247.165 502C247.165 496.478 242.658 492 237.136 492Z" fill="#2A47B6"></path> </svg>
